storage/app/icons/phosphoricons/regular/stool.svg

<svg xmlns="http://www.w3.org/2000/svg" fill="currentColor" viewBox="0 0 256 256"><path d="M200 64V40a16 16 0 0 0-16-16H72a16 16 0 0 0-16 16v24a16 16 0 0 0 16 16h6.64L56.1 222.75a8 8 0 0 0 6.65 9.15 8 8 0 0 0 1.25.1 8 8 0 0 0 7.89-6.75L79.68 176h96.64l7.78 49.25A8 8 0 0 0 192 232a8 8 0 0 0 1.26-.1 8 8 0 0 0 6.65-9.15L177.36 80H184a16 16 0 0 0 16-16M72 40h112v24H72Zm101.79 120H82.21l12.63-80h66.32Z"/></svg>

<svg xmlns="http://www.w3.org/2000/svg" viewBox="0 0 256 256" fill="currentColor"><path d="M200,64V40a16,16,0,0,0-16-16H72A16,16,0,0,0,56,40V64A16,16,0,0,0,72,80h6.64L56.1,222.75a8,8,0,0,0,6.65,9.15A7.82,7.82,0,0,0,64,232a8,8,0,0,0,7.89-6.75L79.68,176h96.64l7.78,49.25A8,8,0,0,0,192,232a7.82,7.82,0,0,0,1.26-.1,8,8,0,0,0,6.65-9.15L177.36,80H184A16,16,0,0,0,200,64ZM72,40H184V64H72ZM173.79,160H82.21L94.84,80h66.32Z"/></svg>
